X:81
T:Inperayritz de la ciutat joyosa
T:Verges ses
C:Livre Vermeil de Montserrat (XIVème siècle)
R:Livre
Z:Transcrit et/ou corrigé par B@D - 2005-03-06
Z:Pour toute observation mailto:-@-
M:6/4
L:1/4
Q:3/4=90
K:C
%%continueall 1
%%staves [1 2]
%%maxshrink 1
V:1
D2E (FE)D | C3 (E2F) | G2F E2D | 
w:In-_ pe-ra-y-ritz de_ la ciu-tat jo-
(CEDA,DC | !breath!D6) | A3B2B | c3B3 | B2B AEA/G/ |
w:yo-_____sa, de pa-ra-dis ab tot ga-ud e-ter-_
A6 | c2B/A/ G2F | !breath! E3C3 | D2CD2D | (EFDCD2 |
w:nal, Ne-__ta de crims, de vir-tuts ha-bun-do-____
E6) | F3 GFG | A2G/F/ E3 | FEDA,DC | D6 |
w:sa, May-res_ de Dieu-__ per o-_bra di-vi-_nal
(A2B)AGF | !breath!E3F3 | E2FG2G | (A2G/F/EAG | A6) |
w:Ver-_ges_ pla-sen, ab fas an-ge-li-cal,
c2B/A/ G2F | E3C3 | D2CD2D | (EFDCD2) | E6 |
w:a-__xi com sotz a Dieu molt gra-ci-o-____sa, 
(A2B)AGF | !breath!E3F3 | E2FG2G | (A2G/F/EAG) | A6 |
w:pla-_caus_ es-tar als fi-zels pi-a-do-_____sa,
c2B/A/G2F | !breath!E3F3 | G2FE2D | (EDA,DC2 | D6) |]
w:pre-__gant per lor al Rey ce-les-ti-al.
V:2
D3D2D | A3A3 | G2GG2G |
w:Im-pe-ray-ritz de la ciu-tat jo-
A2F2E2 | !breath!D6 | d3d2d | c3e3 | d2cc2B |
w:yo-__sa, de pa-ra-dis ab tot gaud e-ter-
A6 | F3G2G | !breath!A3A3 | B2AG2F | E2G2F2 | 
w:nal. Ne-ta de crims, de vir-tuts ha-bun-do-__
G6 | A2cB3 | A3G3 | A2FGE2 | D6 |
w:sa, May-res de Dieu per o-bra di-vi-nal
D3A2B | !breath!c3d3 | e2dc2B | A2c2B2 | A6 |
w:Ver-ges pla-sen ab fas an-ge-li cal___
F3G2G | A3A3 | B2AG2F | E2G2F2 | E6 |
w:a-xi com sotz a Dieu molt gra-ci-o-__sa,
D3A2B | !breath!c3d3 | e2dc2B | A2c2B2 | A6 |
w:pla caus es-tar als fi-zels pi-a-do-__sa,
F3G2G | !breath!A3A3 | G2GG2G | G2F2E2 | D6 |]
w:pre-gant per lor al Rey ce-les-ti-al.




%%header "$P0	 $IR 	$P1"
%%footer $D - Éditions Galouvielle - 2009 - À usage librement privé dans le cadre familial

